X: 36
M: C|
L: 1/8
K: G
|:\
|:\
d>ef>g f>af>d | g>bg>e f>af>d |\
d>ef>g a>fe>d | B>dB>G F>AF>D |
d>gf>e d>cB>A | G2 (3FGA G4 H:|

